X: 1
T: Disconnect
M: 6/8
L: 1/8
K: Em
|: "Em" E2 E B2 c-|c BA Bcd |"D" D2 D A2 B-|B AG F2 G |
   "Em" E2 E B2 c-|c BA Bcd |"D" D2 D Bcd |1 D2 D F2 G :|2 D2 D Bcd |
|: "C" e2 G GFG |"D" A3 ABc | "Bm" d2 F FEF |"Em" G3 Bcd |
"C" e2 G GFG | "D" A3 d2 c | "Bm" BAG FED |1 "Em" EFG ABd :|2 EFG FED ||

